svgs/sharp-thin/square-j.svg

<svg xmlns="http://www.w3.org/2000/svg" viewBox="0 0 448 512"><!--! Font Awesome Pro 6.6.0 by @fontawesome - https://fontawesome.com License - https://fontawesome.com/license (Commercial License) Copyright 2024 Fonticons, Inc. --><path d="M16 48l0 416 416 0 0-416L16 48zM0 32l16 0 416 0 16 0 0 16 0 416 0 16-16 0L16 480 0 480l0-16L0 48 0 32zM304 136l0 160c0 48.6-39.4 88-88 88s-88-39.4-88-88l0-16 0-8 16 0 0 8 0 16c0 39.8 32.2 72 72 72s72-32.2 72-72l0-160 0-8 16 0 0 8z"/></svg>

<svg xmlns="http://www.w3.org/2000/svg" viewBox="0 0 448 512"><!--! Font Awesome Pro 6.5.2 by @fontawesome - https://fontawesome.com License - https://fontawesome.com/license (Commercial License) Copyright 2024 Fonticons, Inc. --><path d="M16 48V464H432V48H16zM0 32H16 432h16V48 464v16H432 16 0V464 48 32zM304 136V296c0 48.6-39.4 88-88 88s-88-39.4-88-88V280v-8h16v8 16c0 39.8 32.2 72 72 72s72-32.2 72-72V136v-8h16v8z"/></svg>
